!! 00000] TT[WS
!!!OTL: Tong yangxi
!!!ARE: Asia, China,ÿShanxi Heshun
!! Ethnic Group: Han
!! WI, 247
!!!SCT: J0292
!!!YEM: Copyright 1995, estate of Helmut Schaffrath.
**kern
*ICvox
*Ivox
*M2/4
*k[f#c#g#]
*A:
{4b
4b
=1
4b
4ee
=2
4dd
8cc#
8ee
=3
2b}
=4
{4cc#
4cc#
=5
4b
8cc#
8b
=6
4a
8g#
8f#
=7
4e
4r}
=8
{4.b
8a
=9
4.b
8cc#
=10
8ee
8a
8g#
8f#
=11
4.e
8b}
=12
{4a
8g#
8f#
=13
8e
8f#
8e
8B
=14
4e
4r}
==
!!!AGN: Xiaodiao. Fengsu, Qingge, Aisu
!!!ONB: ESAC (Essen Associative Code) Database: CHINA
!!!AMT: simple duple
!!!AIN: vox
!!!EED: Helmut Schaffrath
!!!EEV: 1.0
*-
